X: 28971
T: Naomi Jane's
R: reel
M: 4/4
K: Dmajor
|:de|f2fd ecBA|dedB BAFE|DF (3FFF BAde|faaf e2de|
f2fd ecBA|dedB BAFE|(3DDD FA afef|d2de d2:|
|:A2|d2dc dAFA|dcfe dAFD|CEA,C EA,CE|FADF ADFA|
d2dc dAFA|faef dAFD|GEed cAGE|D2DE D2:|

